; HEADER_BLOCK_START
; generated by OrcaSlicer 2.1.1 on 2024-07-14 at 23:55:04
; total layer number: 35
; filament_density: 1.27
; filament_diameter: 1.75
; max_z_height: 6.95
; HEADER_BLOCK_END

; THUMBNAIL_BLOCK_START

;
; THUMBNAIL_BLOCK_END

; THUMBNAIL_BLOCK_START

;
; THUMBNAIL_BLOCK_END

; external perimeters extrusion width = 0.40mm
; perimeters extrusion width = 0.45mm
; infill extrusion width = 0.45mm
; solid infill extrusion width = 0.50mm
; top infill extrusion width = 0.40mm
; support material extrusion width = 0.40mm
; first layer extrusion width = 0.50mm

; EXECUTABLE_BLOCK_START
M73 P0 R61
M201 X1000 Y1000 Z1000 E5000
M203 X200 Y200 Z12 E120
M204 P1250 R1250 T1250
M205 X8.00 Y8.00 Z0.40 E1.50 ; sets the jerk limits, mm/sec
;TYPE:Custom
; Initial setups
G90 ; use absolute coordinates
M83 ; extruder relative mode
M900 K0.12 ; K factor
M900 W0.5 H0.2 D1.75
M200 D0 ; disable volumetric e
M220 S100 ; reset speed factor to 100%
M221 S100 ; reset extrusion rate to 100%

; Set the heating
M190 S80 ; wait for bed to heat up
M104 S255 ; start nozzle heating but don't wait

; Home
G1 Z3 F3000 ; move z up little to prevent scratching of surface
G28 ; home all axes
M73 P7 R57
G1 X3 Y3 F5000 ; move to corner of the bed to avoid ooze over centre

; Wait for final heating
M109 S255 ; wait for the nozzle to heat up
M190 S80 ; wait for the bed to heat up

;Auto bed Leveling
@BEDLEVELVISUALIZER
G29 ; ABL T
M420 S1 Z3 ; reload and fade mesh bed leveling until it reach 3mm Z

; Return to prime position, Prime line routine
G92 E0 ; Reset Extruder
G1 Z3 F3000 ; move z up little to prevent scratching of surface
G1 X10 Y.5 Z0.25 F5000.0 ; Move to start position
G1 X100 Y.5 Z0.25 F1500.0 E15 ; Draw the first line
G1 X100 Y.2 Z0.25 F5000.0 ; Move to side a little
G1 X10 Y.2 Z0.25 F1500.0 E30 ; Draw the second line
G92 E0 ; Reset Extruder
M221 S95
G90
G21
M83 ; use relative distances for extrusion
; filament start gcode
M106 S0
;LAYER_CHANGE
;Z:0.25
;HEIGHT:0.25
;BEFORE_LAYER_CHANGE
G92 E0
;0.25


G1 E-.8 F2100
;AFTER_LAYER_CHANGE
;0.25
;_SET_FAN_SPEED_CHANGING_LAYER
G1 Z.4 F9000
G1 X125.719 Y124.987
G1 Z.4
G1 Z.25
G1 E.8 F2100
M204 S500
;TYPE:Skirt
;WIDTH:0.5
G1 F3000
G1 X127.04 Y123.772 E.0791
G1 X128.89 Y122.272 E.10498
G1 X131.157 Y120.672 E.12228
G1 X132.642 Y119.769 E.07661
G1 X134.495 Y118.786 E.09245
G1 X137.342 Y117.519 E.13731
G1 X140.639 Y116.42 E.15317
G1 X144.09 Y115.646 E.15588
G1 X146.57 Y115.32 E.11025
G1 X149.049 Y115.153 E.1095
G1 X150.808 Y115.151 E.07753
G1 X152.688 Y115.244 E.08297
G1 X154.842 Y115.485 E.09553
G1 X158.281 Y116.147 E.15433
G1 X161.657 Y117.155 E.15531
G1 X164.574 Y118.339 E.13873
G1 X167.516 Y119.861 E.14599
G1 X170.417 Y121.745 E.15244
G1 X173.004 Y123.808 E.14584
G1 X175.497 Y126.228 E.15316
G1 X177.588 Y128.698 E.14262
G1 X179.412 Y131.304 E.14019
G1 X180.575 Y133.255 E.10009
G1 X181.592 Y135.284 E.10002
G1 X182.829 Y138.292 E.14334
G1 X183.851 Y141.692 E.15647
G1 X184.508 Y145.11 E.15341
G1 X184.812 Y148.179 E.13594
G1 X184.832 Y151.216 E.13384
G1 X184.678 Y153.554 E.10325
G1 X184.152 Y156.989 E.15317
G1 X183.761 Y158.683 E.07661
G1 X182.862 Y161.615 E.13516
G1 X182.09 Y163.617 E.09461
G1 X180.575 Y166.745 E.15317
G1 X178.756 Y169.706 E.15316
G1 X176.651 Y172.471 E.15316
G1 X174.281 Y175.013 E.15316
G1 X172.96 Y176.228 E.0791
G1 X171.11 Y177.728 E.10498
G1 X168.843 Y179.328 E.12227
G1 X167.358 Y180.231 E.07661
G1 X165.505 Y181.214 E.09245
G1 X162.658 Y182.481 E.13731
G1 X159.361 Y183.58 E.15317
G1 X155.91 Y184.354 E.15588
G1 X153.434 Y184.679 E.11008
G1 X150.952 Y184.847 E.10962
G1 X149.214 Y184.851 E.07661
G1 X145.748 Y184.6 E.15317
G1 X142.162 Y183.967 E.16049
G1 X138.819 Y183.018 E.15317
G1 X135.587 Y181.741 E.15316
G1 X132.642 Y180.231 E.14584
G1 X129.905 Y178.477 E.1433
G1 X127.517 Y176.628 E.13308
G1 X125.719 Y175.013 E.10651
G1 X124.369 Y173.622 E.08544
G1 X122.162 Y170.982 E.15165
G1 X120.211 Y168.106 E.15317
G1 X118.628 Y165.2 E.14584
G1 X117.271 Y162.001 E.15317
G1 X116.239 Y158.683 E.15316
G1 X115.542 Y155.278 E.15317
G1 X115.188 Y151.821 E.15316
G1 X115.168 Y148.784 E.13384
G1 X115.322 Y146.446 E.10325
G1 X115.848 Y143.011 E.15317
G1 X116.239 Y141.317 E.07661
G1 X117.138 Y138.385 E.13516
G1 X117.91 Y136.383 E.09461
G1 X119.425 Y133.255 E.15317
G1 X121.244 Y130.294 E.15316
G1 X123.349 Y127.529 E.15316
G1 X125.692 Y125.016 E.1514
G1 X126.018 Y125.32 F9000
G1 F3000
G1 X126.023 Y125.314 E.00033
G1 X127.321 Y124.118 E.07779
G1 X129.171 Y122.618 E.10498
G1 X131.39 Y121.052 E.11967
G1 X132.856 Y120.161 E.07563
G1 X134.699 Y119.183 E.09198
G1 X137.494 Y117.939 E.13484
G1 X140.749 Y116.853 E.15121
G1 X144.156 Y116.087 E.15392
G1 X146.601 Y115.765 E.10869
G1 X149.071 Y115.599 E.1091
G1 X150.807 Y115.598 E.07651
G1 X152.644 Y115.688 E.08104
G1 X154.776 Y115.926 E.09455
G1 X158.184 Y116.583 E.153
G1 X161.505 Y117.575 E.15272
G1 X164.396 Y118.749 E.13754
G1 X167.283 Y120.242 E.14326
G1 X170.147 Y122.1 E.15048
G1 X172.825 Y124.245 E.15121
G1 X175.178 Y126.54 E.14485
G1 X177.312 Y129.071 E.1459
G1 X178.475 Y130.674 E.08727
G1 X179.756 Y132.73 E.10678
G1 X181.233 Y135.568 E.141
G1 X182.412 Y138.451 E.13729
G1 X183.416 Y141.791 E.15371
G1 X184.068 Y145.183 E.15222
G1 X184.367 Y148.213 E.13419
G1 X184.385 Y151.205 E.13188
G1 X184.235 Y153.498 E.10129
G1 X183.717 Y156.89 E.1512
G1 X183.332 Y158.562 E.07563
G1 X182.436 Y161.483 E.13468
G1 X181.683 Y163.434 E.09214
G1 X180.188 Y166.522 E.15121
G1 X178.393 Y169.446 E.1512
G1 X176.316 Y172.176 E.1512
G1 X173.977 Y174.686 E.1512
G1 X172.679 Y175.882 E.07779
G1 X170.829 Y177.382 E.10498
G1 X168.61 Y178.948 E.11967
G1 X167.144 Y179.839 E.07563
G1 X165.301 Y180.817 E.09198
G1 X162.506 Y182.061 E.13484
G1 X159.251 Y183.147 E.15121
G1 X155.844 Y183.913 E.15392
G1 X153.402 Y184.234 E.10853
G1 X150.93 Y184.401 E.1092
G1 X149.214 Y184.405 E.07563
G1 X145.649 Y184.138 E.15755
G1 X142.272 Y183.535 E.1512
G1 X138.971 Y182.599 E.15121
G1 X135.78 Y181.339 E.1512
G1 X132.856 Y179.839 E.14486
G1 X130.17 Y178.118 E.14061
G1 X127.811 Y176.293 E.13142
G1 X126.023 Y174.686 E.10597
G1 X124.691 Y173.312 E.08433
G1 X122.524 Y170.722 E.14884
G1 X120.598 Y167.883 E.15121
G1 X118.963 Y164.867 E.1512
G1 X117.686 Y161.838 E.14486
G1 X116.668 Y158.562 E.1512
G1 X115.981 Y155.2 E.15121
G1 X115.633 Y151.787 E.1512
G1 X115.615 Y148.795 E.13188
G1 X115.765 Y146.502 E.10129
G1 X116.283 Y143.11 E.15121
G1 X116.668 Y141.438 E.07562
G1 X117.564 Y138.517 E.13468
G1 X118.317 Y136.566 E.09214
G1 X119.812 Y133.478 E.15121
G1 X121.607 Y130.554 E.1512
G1 X123.684 Y127.824 E.1512
G1 X125.99 Y125.349 E.14911
G1 X126.316 Y125.652 F9000
G1 F3000
G1 X126.326 Y125.641 E.00066
G1 X127.602 Y124.465 E.07647
G1 X129.452 Y122.965 E.10498
G1 X131.622 Y121.433 E.11706
G1 X133.069 Y120.553 E.07464
G1 X134.903 Y119.58 E.09151
G1 X137.647 Y118.358 E.13237
G1 X140.859 Y117.286 E.14924
G1 X144.223 Y116.529 E.15196
G1 X146.632 Y116.21 E.10713
G1 X149.093 Y116.045 E.1087
G1 X150.806 Y116.044 E.0755
G1 X152.599 Y116.132 E.07911
G1 X154.709 Y116.368 E.09357
G1 X158.088 Y117.019 E.15168
G1 X161.352 Y117.994 E.15012
G1 X164.218 Y119.158 E.13635
G1 X167.051 Y120.622 E.14052
G1 X169.878 Y122.456 E.14852
G1 X172.43 Y124.491 E.14388
G1 X174.858 Y126.852 E.14924
G1 X176.952 Y129.335 E.14313
G1 X178.1 Y130.916 E.08612
G1 X179.374 Y132.962 E.10623
G1 X180.826 Y135.751 E.1386
G1 X181.995 Y138.61 E.13612
G1 X182.981 Y141.89 E.15096
G1 X183.628 Y145.256 E.15103
G1 X183.922 Y148.246 E.13243
G1 X183.939 Y151.194 E.12992
G1 X183.793 Y153.443 E.09933
G1 X183.282 Y156.79 E.14924
G1 X182.902 Y158.441 E.07465
G1 X182.009 Y161.352 E.1342
G1 X181.277 Y163.25 E.08968
G1 X179.802 Y166.299 E.14924
G1 X178.031 Y169.185 E.14924
G1 X175.981 Y171.881 E.14924
G1 X173.674 Y174.359 E.14924
G1 X172.398 Y175.535 E.07647
G1 X170.548 Y177.035 E.10498
G1 X168.378 Y178.567 E.11706
G1 X166.931 Y179.447 E.07465
G1 X165.097 Y180.42 E.09151
G1 X162.353 Y181.642 E.13237
G1 X159.141 Y182.714 E.14924
G1 X155.777 Y183.471 E.15196
G1 X153.371 Y183.788 E.10698
G1 X150.908 Y183.955 E.10879
G1 X149.214 Y183.958 E.07465
G1 X145.837 Y183.711 E.14924
G1 X142.501 Y183.129 E.14924
G1 X139.124 Y182.179 E.15461
G1 X135.974 Y180.936 E.14924
G1 X133.069 Y179.447 E.14387
G1 X130.435 Y177.758 E.13792
G1 X128.106 Y175.957 E.12975
G1 X126.326 Y174.359 E.10543
G1 X125.012 Y173.003 E.08322
G1 X122.887 Y170.461 E.14603
G1 X120.984 Y167.66 E.14924
G1 X119.37 Y164.683 E.14924
G1 X118.102 Y161.675 E.14388
G1 X117.098 Y158.441 E.14924
G1 X116.421 Y155.123 E.14925
G1 X116.078 Y151.754 E.14924
G1 X116.061 Y148.806 E.12992
G1 X116.207 Y146.557 E.09933
G1 X116.718 Y143.21 E.14924
G1 X117.098 Y141.559 E.07464
G1 X117.991 Y138.648 E.1342
G1 X118.723 Y136.75 E.08968
G1 X120.198 Y133.701 E.14924
G1 X121.969 Y130.815 E.14924
G1 X124.019 Y128.119 E.14924
G1 X126.289 Y125.682 E.14682
; printing object headset-driver grid.stl id:4294967299 copy 0
G1 E-.8 F2100
G1 Z.65 F9000
G1 X129.142 Y126.365 Z.65
G1 Z.25
G1 E.8 F2100
;TYPE:Support interface
;WIDTH:0.4
G1 F2700
G1 X127.99 Y127.435 E.05375
G1 X126.893 Y128.56 E.05375
G1 X125.794 Y129.812 E.05698
G1 E-.8 F2100
G1 Z.65 F9000
G1 X122.178 Y135.196 Z.65
G1 Z.25
G1 E.8 F2100
G1 F2700
G1 X122.317 Y134.925 E.01043
G1 X123.103 Y133.563 E.05375
G1 X123.955 Y132.243 E.05375
G1 X124.825 Y131.033 E.05097
G1 X130.993 Y124.866 E.29829
G1 X131.599 Y124.406 E.02602
G1 X132.898 Y123.521 E.05375
G1 X134.239 Y122.701 E.05375
G1 X135.19 Y122.183 E.03705
G1 E-.8 F2100
G1 Z.65 F9000
G1 X138.723 Y120.57 Z.65
G1 Z.25
G1 E.8 F2100
G1 F2700
G1 X137.035 Y121.268 E.06244
G1 X136.022 Y121.756 E.03847
G1 X121.753 Y136.025 E.69012
G1 X121.6 Y136.323 E.01146
G1 X120.953 Y137.756 E.05375
G1 X120.576 Y138.717 E.0353
G1 X120.329 Y139.368 F9000
G1 F2700
G1 X139.358 Y120.339 E.92032
G1 X139.961 Y120.12 E.02194
G1 X141.463 Y119.656 E.05375
G1 X142.13 Y119.486 E.02354
G1 X119.476 Y142.14 E1.09564
G1 X119.103 Y143.754 E.05664
G1 X118.958 Y144.577 E.02859
G1 X144.587 Y118.948 E1.23956
G1 X146.08 Y118.723 E.05164
G1 X146.804 Y118.65 E.02487
G1 X118.641 Y146.814 E1.36211
G1 X118.517 Y148.429 E.0554
G1 X118.506 Y148.867 E.015
G1 X130.456 Y136.917 E.57796
G1 X131.277 Y135.761 E.04848
G1 X131.964 Y134.899 E.03769
G1 X132.757 Y133.999 E.04103
G1 X133.591 Y133.146 E.04079
G1 X134.403 Y132.392 E.03789
G1 X135.321 Y131.62 E.04103
G1 X136.275 Y130.896 E.04096
G1 X136.907 Y130.466 E.02615
G1 X148.868 Y118.505 E.57849
G1 X149.215 Y118.488 E.01187
G1 X150.624 Y118.49 E.04818
G1 E-.8 F2100
G1 Z.65 F9000
G1 X147.952 Y126.938 Z.65
G1 Z.25
G1 E.8 F2100
G1 F2700
G1 X147.088 Y127.018 E.02969
G1 X145.943 Y127.193 E.03961
G1 X144.629 Y128.503 E.06345
G1 X143.83 Y128.715 E.02827
G1 X143.671 Y128.583 E.00706
G1 X143.53 Y128.614 E.00493
G1 X143.422 Y128.661 E.00403
G1 X143.049 Y128.956 E.01626
G1 X142.127 Y129.284 E.03347
G1 X142.01 Y129.202 E.00489
G1 X143.416 Y127.796 E.06802
G1 X144.188 Y127.583 E.02739
G1 E-.8 F2100
G1 Z.65 F9000
G1 X145.418 Y128.117 Z.65
G1 Z.25
G1 E.8 F2100
G1 F2700
G1 X145.574 Y128.287 E.0079
G1 X146.115 Y128.179 E.01886
G1 X147.008 Y128.042 E.03091
G1 X148.13 Y126.92 E.05426
G1 X148.579 Y126.875 E.01543
G1 X149.65 Y126.824 E.03668
G1 X150.146 Y126.824 E.01693
G1 X149.268 Y127.702 E.04245
G1 X149.279 Y127.709 E.00045
G1 X149.475 Y127.758 E.00693
G1 X149.67 Y127.727 E.00675
G1 X149.839 Y127.621 E.00682
G1 X149.921 Y127.508 E.00478
G1 X150.564 Y127.321 E.0229
G1 X150.718 Y127.621 E.0115
G1 X150.821 Y127.735 E.00527
G1 X151.013 Y127.841 E.0075
G1 X151.046 Y127.843 E.00113
G1 X151.81 Y127.079 E.03694
G1 X151.844 Y127.249 E.00593
G1 X151.801 Y127.48 E.00803
G1 X151.676 Y127.678 E.00803
G1 X151.487 Y127.817 E.00803
G1 X151.332 Y127.857 E.00547
G1 X151.225 Y127.852 E.00367
G1 E-.8 F2100
G1 Z.65 F9000
G1 X152.639 Y127.969 Z.65
G1 Z.25
G1 E.8 F2100
G1 F2700
G1 X152.131 Y127.919 E.01744
G1 X152.145 Y127.905 E.00066
G1 X152.158 Y127.622 E.00968
G1 X152.314 Y127.223 E.01467
G1 X152.229 Y126.924 E.01064
G1 X152.842 Y126.985 E.02105
G1 X153.695 Y127.113 E.02951
G1 X152.816 Y127.992 E.04252
G1 X153.706 Y128.126 E.03076
G1 X154.281 Y128.241 E.02008
G1 X154.35 Y128.016 E.00804
G1 X154.079 Y128.126 E.01002
G1 X154.413 Y127.314 E.03005
G1 X154.49 Y127.263 E.00314
G1 X153.872 Y127.139 E.02155
G1 E-.8 F2100
G1 Z.65 F9000
G1 X155.385 Y127.54 Z.65
G1 Z.25
G1 E.8 F2100
;TYPE:Support
;WIDTH:0.5
G1 F2700
G1 X155.338 Y127.798 E.01156
G1 X155.172 Y128.053 E.01341
G1 X155.111 Y128.252 E.00915
G1 X155.084 Y128.57 E.0141
G1 X154.964 Y128.834 E.01275
G1 X155.59 Y128.992 E.02844
G1 X156.957 Y129.408 E.06299
G1 X157.98 Y129.782 E.04799
G1 X158.922 Y130.179 E.04505
G1 X159.921 Y130.66 E.04889
G1 X160.895 Y131.191 E.04889
G1 X161.761 Y131.721 E.04475
G1 X162.674 Y132.341 E.04864
G1 X163.562 Y133.013 E.04907
G1 X164.411 Y133.728 E.04892
G1 X165.172 Y134.434 E.04575
G1 X165.93 Y135.211 E.04785
G1 X166.658 Y136.037 E.04851
G1 X167.35 Y136.907 E.04897
G1 X167.947 Y137.737 E.04505
G1 X168.545 Y138.662 E.04858
G1 X169.1 Y139.623 E.0489
G1 X169.563 Y140.527 E.04475
G1 X170.022 Y141.538 E.04896
G1 X170.399 Y142.486 E.04497
G1 X170.779 Y143.62 E.05271
G1 X170.942 Y144.198 E.02643
G1 X171.116 Y144.22 E.00774
G1 X170.987 Y144.361 E.0084
G1 X171.303 Y145.68 E.05978
G1 X171.495 Y146.769 E.04875
G1 X171.632 Y147.875 E.04911
G1 X171.706 Y148.866 E.04381
G1 X171.74 Y150.444 E.06955
G1 X171.714 Y151.473 E.04537
G1 X171.654 Y152.17 E.03085
G1 X171.568 Y152.852 E.03029
G1 X171.74 Y153.064 E.01203
G1 X171.524 Y153.151 E.01029
G1 X171.397 Y153.872 E.03227
G1 X171.051 Y155.412 E.06956
G1 X170.781 Y156.373 E.04396
G1 X170.431 Y157.419 E.04864
G1 X170.027 Y158.449 E.04875
G1 X169.569 Y159.461 E.04895
G1 X169.103 Y160.37 E.04505
G1 X168.549 Y161.332 E.04893
G1 X167.948 Y162.261 E.04874
G1 X167.302 Y163.156 E.04866
G1 X166.665 Y163.956 E.04505
G1 X165.931 Y164.788 E.0489
G1 X165.161 Y165.576 E.04858
G1 X164.411 Y166.272 E.04505
M73 P7 R56
G1 X163.561 Y166.987 E.04897
G1 X162.68 Y167.655 E.04875
G1 X161.768 Y168.275 E.04861
G1 X160.895 Y168.808 E.04505
G1 X159.921 Y169.341 E.04894
G1 X158.928 Y169.818 E.04854
G1 X158.47 Y170.011 E.02191
G1 X158.448 Y170.046 E.00184
G1 X158.398 Y170.042 E.0022
G1 X157.928 Y170.24 E.02248
G1 X156.952 Y170.595 E.04574
G1 X155.893 Y170.923 E.0489
G1 X154.817 Y171.196 E.04889
G1 X153.822 Y171.397 E.04475
G1 X152.749 Y171.561 E.04786
G1 X151.312 Y171.699 E.06362
G1 X150.312 Y171.748 E.04413
G1 X149.327 Y171.747 E.04339
G1 X148.335 Y171.697 E.04378
G1 X147.334 Y171.597 E.04434
G1 X146.352 Y171.449 E.04379
G1 X145.394 Y171.257 E.04307
G1 X144.416 Y171.009 E.04444
G1 X143.033 Y170.589 E.06372
G1 X142.02 Y170.218 E.04754
G1 X141.107 Y169.833 E.04368
G1 X140.847 Y169.979 E.01312
G1 X140.672 Y169.726 E.01356
G1 X140.415 Y169.564 E.01339
G1 X140.247 Y169.422 E.0097
G1 X139.111 Y168.812 E.05684
G1 X138.244 Y168.283 E.04475
G1 X137.326 Y167.659 E.04895
G1 X136.444 Y166.991 E.04875
G1 X135.589 Y166.272 E.04925
G1 X134.844 Y165.581 E.04475
G1 X134.073 Y164.793 E.04861
G1 X133.337 Y163.958 E.04907
G1 X132.65 Y163.093 E.04865
G1 X132.053 Y162.263 E.04505
G1 X131.451 Y161.332 E.04891
G1 X130.897 Y160.371 E.04888
G1 X130.434 Y159.467 E.04474
G1 X129.978 Y158.462 E.04866
G1 X129.687 Y157.72 E.0351
G1 X129.423 Y157.729 E.01161
G1 X129.587 Y157.473 E.01337
G1 X129.219 Y156.373 E.05113
G1 X128.946 Y155.402 E.04444
G1 X128.72 Y154.419 E.04446
G1 X128.566 Y154.316 E.00815
G1 X128.383 Y154.27 E.00832
G1 X128.499 Y154.182 E.00643
G1 X128.635 Y153.97 E.01112
G1 X128.505 Y153.231 E.03305
G1 X128.437 Y152.684 E.02427
G1 X128.177 Y152.497 E.01411
G1 X128.129 Y152.483 E.00224
G1 X128.291 Y152.361 E.00896
G1 X128.38 Y152.221 E.0073
G1 X128.287 Y150.905 E.05816
G1 X127.969 Y150.676 E.01726
G1 X127.573 Y150.577 E.01797
G1 X127.433 Y150.595 E.00621
G1 X127.692 Y150.462 E.01282
G1 X127.996 Y150.1 E.02085
G1 X128.061 Y149.922 E.00834
G1 X128.27 Y149.736 E.01235
G1 X128.292 Y148.894 E.03712
G1 X128.377 Y147.786 E.04897
G1 X128.504 Y146.779 E.04475
G1 X128.704 Y145.641 E.05092
G1 X128.566 Y145.426 E.01123
G1 X128.475 Y145.36 E.00498
G1 X128.619 Y145.324 E.00656
G1 X128.808 Y145.197 E.01001
G1 X128.944 Y144.605 E.02681
