; HEADER_BLOCK_START
; generated by OrcaSlicer 2.1.1 on 2024-07-14 at 23:53:33
; total layer number: 17
; filament_density: 1.27
; filament_diameter: 1.75
; max_z_height: 3.35
; HEADER_BLOCK_END

; THUMBNAIL_BLOCK_START

;
; THUMBNAIL_BLOCK_END

; THUMBNAIL_BLOCK_START

;
; THUMBNAIL_BLOCK_END

; external perimeters extrusion width = 0.40mm
; perimeters extrusion width = 0.45mm
; infill extrusion width = 0.45mm
; solid infill extrusion width = 0.50mm
; top infill extrusion width = 0.40mm
; support material extrusion width = 0.40mm
; first layer extrusion width = 0.50mm

; EXECUTABLE_BLOCK_START
M73 P0 R128
M201 X1000 Y1000 Z1000 E5000
M203 X200 Y200 Z12 E120
M204 P1250 R1250 T1250
M205 X8.00 Y8.00 Z0.40 E1.50 ; sets the jerk limits, mm/sec
;TYPE:Custom
; Initial setups
G90 ; use absolute coordinates
M83 ; extruder relative mode
M900 K0.12 ; K factor
M900 W0.5 H0.2 D1.75
M200 D0 ; disable volumetric e
M220 S100 ; reset speed factor to 100%
M221 S100 ; reset extrusion rate to 100%

; Set the heating
M190 S80 ; wait for bed to heat up
M104 S255 ; start nozzle heating but don't wait

; Home
G1 Z3 F3000 ; move z up little to prevent scratching of surface
G28 ; home all axes
M73 P3 R124
G1 X3 Y3 F5000 ; move to corner of the bed to avoid ooze over centre

; Wait for final heating
M109 S255 ; wait for the nozzle to heat up
M190 S80 ; wait for the bed to heat up

;Auto bed Leveling
@BEDLEVELVISUALIZER
G29 ; ABL T
M420 S1 Z3 ; reload and fade mesh bed leveling until it reach 3mm Z

; Return to prime position, Prime line routine
G92 E0 ; Reset Extruder
G1 Z3 F3000 ; move z up little to prevent scratching of surface
G1 X10 Y.5 Z0.25 F5000.0 ; Move to start position
G1 X100 Y.5 Z0.25 F1500.0 E15 ; Draw the first line
G1 X100 Y.2 Z0.25 F5000.0 ; Move to side a little
G1 X10 Y.2 Z0.25 F1500.0 E30 ; Draw the second line
G92 E0 ; Reset Extruder
M221 S95
G90
G21
M83 ; use relative distances for extrusion
; filament start gcode
M106 S0
;LAYER_CHANGE
;Z:0.25
;HEIGHT:0.25
;BEFORE_LAYER_CHANGE
G92 E0
;0.25


G1 E-.8 F2100
;AFTER_LAYER_CHANGE
;0.25
;_SET_FAN_SPEED_CHANGING_LAYER
G1 Z.4 F9000
G1 X113.328 Y112.558
G1 Z.4
G1 Z.25
G1 E.8 F2100
M204 S500
;TYPE:Skirt
;WIDTH:0.5
G1 F3000
G1 X117.238 Y109.092 E.23026
G1 X119.318 Y107.51 E.11517
G1 X121.474 Y106.034 E.11517
G1 X123.725 Y104.653 E.11638
G1 X126.01 Y103.403 E.1148
G1 X128.356 Y102.268 E.11484
G1 X130.826 Y101.224 E.11818
G1 X135.718 Y99.574 E.22756
G1 X140.813 Y98.402 E.23039
G1 X146.004 Y97.743 E.23065
G1 X149.023 Y97.607 E.13316
G1 X151.231 Y97.608 E.09735
G1 X153.998 Y97.743 E.12209
G1 X156.784 Y98.038 E.12345
M73 P3 R123
G1 X161.569 Y98.883 E.21418
G1 X164.104 Y99.524 E.1152
G1 X166.62 Y100.295 E.116
G1 X169.052 Y101.176 E.114
G1 X171.477 Y102.193 E.11592
G1 X174.094 Y103.46 E.12811
G1 X176.612 Y104.86 E.12697
G1 X180.45 Y107.35 E.20166
G1 X182.598 Y108.962 E.11836
G1 X184.617 Y110.65 E.11598
G1 X186.543 Y112.432 E.11566
G1 X188.343 Y114.271 E.11338
G1 X190.104 Y116.259 E.11705
G1 X191.779 Y118.36 E.11843
G1 X194.358 Y122.108 E.20053
G1 X195.828 Y124.585 E.12696
G1 X197.18 Y127.179 E.1289
G1 X198.261 Y129.563 E.11538
G1 X199.206 Y131.959 E.11349
G1 X200.063 Y134.494 E.11794
G1 X200.766 Y136.975 E.11367
G1 X201.359 Y139.56 E.11688
G1 X201.676 Y141.336 E.07952
G1 X202.14 Y144.69 E.14922
G1 X202.34 Y147.293 E.11508
G1 X202.389 Y150.932 E.16037
G1 X202.341 Y152.69 E.07751
G1 X202.138 Y155.328 E.11661
G1 X201.841 Y157.672 E.10414
G1 X201.355 Y160.461 E.12475
G1 X200.821 Y162.788 E.10522
G1 X200.028 Y165.616 E.12946
G1 X199.217 Y168.015 E.1116
G1 X198.262 Y170.436 E.11472
G1 X197.068 Y173.038 E.12618
G1 X195.985 Y175.144 E.10436
G1 X194.527 Y177.63 E.127
G1 X193.341 Y179.469 E.09646
G1 X191.822 Y181.588 E.1149
G1 X190.277 Y183.525 E.1092
G1 X188.487 Y185.575 E.11993
G1 X186.673 Y187.442 E.11472
G1 X182.735 Y190.93 E.23187
G1 X180.68 Y192.492 E.11375
G1 X178.494 Y193.988 E.11677
G1 X176.273 Y195.349 E.1148
G1 X173.983 Y196.601 E.11505
G1 X171.637 Y197.735 E.11483
G1 X169.346 Y198.704 E.10961
G1 X166.775 Y199.653 E.1208
G1 X164.286 Y200.426 E.11485
G1 X159.18 Y201.6 E.23091
G1 X153.99 Y202.258 E.23057
G1 X150.977 Y202.393 E.13295
G1 X148.923 Y202.396 E.0905
G1 X145.997 Y202.257 E.12912
G1 X143.216 Y201.962 E.12325
G1 X138.429 Y201.117 E.21424
G1 X135.739 Y200.433 E.12231
G1 X133.24 Y199.655 E.11537
G1 X128.804 Y197.926 E.20985
G1 X126.161 Y196.675 E.12885
G1 X123.865 Y195.429 E.11511
G1 X121.62 Y194.062 E.11586
G1 X119.47 Y192.6 E.11461
G1 X117.206 Y190.881 E.12524
G1 X115.1 Y189.09 E.12188
G1 X111.971 Y186.052 E.19221
G1 X110.043 Y183.908 E.12708
G1 X108.282 Y181.724 E.12365
G1 X106.749 Y179.6 E.11543
G1 X105.315 Y177.388 E.11617
G1 X104.007 Y175.129 E.11505
G1 X102.777 Y172.728 E.11888
G1 X100.932 Y168.393 E.20765
G1 X99.938 Y165.511 E.13436
G1 X99.227 Y162.998 E.11512
G1 X98.644 Y160.458 E.11483
G1 X98.324 Y158.665 E.08029
G1 X97.859 Y155.298 E.14979
G1 X97.666 Y152.789 E.11091
G1 X97.611 Y149.068 E.164
G1 X97.659 Y147.315 E.07732
G1 X97.863 Y144.672 E.11681
G1 X98.159 Y142.328 E.10415
G1 X98.641 Y139.557 E.12397
G1 X99.18 Y137.211 E.10607
G1 X99.974 Y134.384 E.12942
G1 X100.779 Y131.998 E.11099
G1 X101.732 Y129.579 E.11458
G1 X102.934 Y126.959 E.12706
G1 X103.931 Y125.011 E.09641
G1 X105.475 Y122.368 E.13493
G1 X106.65 Y120.545 E.09555
G1 X108.171 Y118.423 E.1151
G1 X109.724 Y116.473 E.10984
G1 X111.507 Y114.432 E.11946
G1 X113.3 Y112.586 E.1134
G1 X113.62 Y112.897 F9000
G1 F3000
G1 X113.648 Y112.869 E.00174
G1 X117.525 Y109.434 E.2283
G1 X119.588 Y107.866 E.11419
G1 X121.726 Y106.402 E.11419
G1 X123.958 Y105.033 E.1154
G1 X126.224 Y103.795 E.11381
G1 X128.55 Y102.671 E.11386
G1 X130.997 Y101.637 E.11708
G1 X135.85 Y100 E.22573
G1 X140.901 Y98.839 E.22843
G1 X146.049 Y98.187 E.22869
G1 X149.041 Y98.053 E.13199
G1 X151.211 Y98.054 E.09565
G1 X153.954 Y98.187 E.12104
G1 X156.735 Y98.482 E.12326
G1 X161.481 Y99.321 E.21241
G1 X163.994 Y99.956 E.11422
G1 X166.488 Y100.722 E.11502
G1 X168.899 Y101.595 E.11302
G1 X171.304 Y102.605 E.11494
G1 X173.88 Y103.852 E.12614
G1 X176.391 Y105.248 E.12663
G1 X180.184 Y107.708 E.19923
G1 X182.329 Y109.318 E.1182
G1 X184.33 Y110.992 E.115
G1 X186.24 Y112.759 E.11467
G1 X188.023 Y114.582 E.1124
G1 X189.769 Y116.554 E.11607
G1 X191.429 Y118.637 E.11738
G1 X193.977 Y122.341 E.19812
G1 X195.442 Y124.809 E.12649
G1 X196.783 Y127.383 E.12792
G1 X197.854 Y129.747 E.1144
G1 X198.791 Y132.122 E.11251
G1 X199.636 Y134.624 E.1164
G1 X200.336 Y137.096 E.11324
G1 X200.924 Y139.659 E.1159
G1 X201.237 Y141.414 E.07854
G1 X201.697 Y144.745 E.14824
G1 X201.895 Y147.327 E.1141
G1 X201.943 Y150.921 E.15841
G1 X201.896 Y152.657 E.07654
G1 X201.695 Y155.272 E.11563
G1 X201.401 Y157.597 E.10325
G1 X200.92 Y160.362 E.12368
G1 X200.391 Y162.668 E.10428
G1 X199.604 Y165.474 E.12843
G1 X198.801 Y167.851 E.11062
G1 X197.855 Y170.252 E.11374
G1 X196.665 Y172.847 E.1258
G1 X195.598 Y174.921 E.10279
G1 X194.144 Y177.4 E.12669
G1 X192.966 Y179.227 E.0958
G1 X191.459 Y181.327 E.11392
G1 X189.941 Y183.232 E.10734
G1 X188.152 Y185.279 E.11983
G1 X186.354 Y187.13 E.11374
G1 X182.448 Y190.588 E.2299
G1 X180.411 Y192.136 E.11278
G1 X178.242 Y193.619 E.11579
G1 X176.04 Y194.968 E.11381
G1 X173.769 Y196.209 E.11407
G1 X171.443 Y197.333 E.11385
G1 X169.187 Y198.287 E.10798
G1 X166.622 Y199.234 E.12047
G1 X164.155 Y199.999 E.11387
G1 X159.092 Y201.163 E.22895
G1 X153.946 Y201.814 E.2286
G1 X150.959 Y201.947 E.13179
G1 X148.923 Y201.95 E.08971
G1 X146.041 Y201.813 E.12716
G1 X143.264 Y201.519 E.12307
G1 X138.517 Y200.679 E.21247
G1 X135.871 Y200.006 E.12035
G1 X133.374 Y199.229 E.11528
G1 X128.977 Y197.514 E.20798
G1 X126.355 Y196.273 E.12787
G1 X124.079 Y195.037 E.11414
G1 X121.853 Y193.681 E.11487
G1 X119.721 Y192.231 E.11363
G1 X117.493 Y190.54 E.12328
G1 X115.391 Y188.752 E.12163
G1 X112.29 Y185.74 E.19051
G1 X110.377 Y183.612 E.12611
G1 X108.631 Y181.445 E.12267
G1 X107.111 Y179.339 E.11445
G1 X105.69 Y177.146 E.11518
G1 X104.325 Y174.78 E.12038
G1 X103.175 Y172.526 E.11152
G1 X101.347 Y168.23 E.20577
G1 X100.361 Y165.369 E.13337
G1 X99.657 Y162.877 E.11414
G1 X99.079 Y160.359 E.11385
G1 X98.763 Y158.588 E.07932
G1 X98.301 Y155.243 E.1488
G1 X98.111 Y152.756 E.10993
G1 X98.057 Y149.08 E.16204
G1 X98.104 Y147.348 E.07634
G1 X98.305 Y144.728 E.11583
G1 X98.599 Y142.403 E.10325
G1 X99.076 Y139.656 E.12291
G1 X99.609 Y137.331 E.10512
G1 X100.397 Y134.526 E.12841
G1 X101.194 Y132.161 E.11001
G1 X102.139 Y129.763 E.1136
G1 X103.337 Y127.15 E.12666
G1 X104.328 Y125.215 E.09584
G1 X105.858 Y122.597 E.13362
G1 X107.025 Y120.788 E.0949
G1 X108.534 Y118.683 E.11412
G1 X110.06 Y116.767 E.10798
G1 X111.842 Y114.727 E.11937
G1 X113.592 Y112.926 E.11069
G1 X113.913 Y113.237 F9000
G1 F3000
G1 X113.967 Y113.181 E.00348
G1 X117.812 Y109.776 E.22634
G1 X119.857 Y108.222 E.11321
G1 X121.977 Y106.771 E.11321
G1 X124.19 Y105.414 E.11441
G1 X126.437 Y104.187 E.11283
G1 X128.743 Y103.073 E.11288
G1 X131.167 Y102.049 E.11597
G1 X135.981 Y100.427 E.22389
G1 X140.989 Y99.277 E.22647
G1 X146.093 Y98.631 E.22673
G1 X149.058 Y98.499 E.13082
G1 X151.19 Y98.5 E.09394
G1 X153.909 Y98.631 E.11999
G1 X156.686 Y98.926 E.12308
G1 X161.393 Y99.758 E.21064
G1 X163.884 Y100.389 E.11324
G1 X166.357 Y101.148 E.11403
G1 X168.747 Y102.015 E.11204
G1 X171.131 Y103.016 E.11396
G1 X173.667 Y104.244 E.12418
G1 X176.171 Y105.636 E.12628
G1 X179.917 Y108.066 E.1968
G1 X182.059 Y109.674 E.11804
G1 X184.043 Y111.334 E.11402
G1 X185.936 Y113.086 E.11368
G1 X187.704 Y114.894 E.11143
G1 X189.434 Y116.85 E.1151
G1 X191.079 Y118.914 E.11634
G1 X193.596 Y122.573 E.19571
G1 X195.055 Y125.032 E.12602
G1 X196.386 Y127.586 E.12694
G1 X197.447 Y129.931 E.11342
G1 X198.375 Y132.285 E.11153
G1 X199.209 Y134.754 E.11487
G1 X199.906 Y137.217 E.11281
G1 X200.489 Y139.758 E.11491
G1 X200.797 Y141.491 E.07756
G1 X201.254 Y144.801 E.14727
G1 X201.45 Y147.36 E.11312
G1 X201.497 Y150.909 E.15644
G1 X201.451 Y152.623 E.07556
G1 X201.252 Y155.217 E.11465
G1 X200.961 Y157.521 E.10236
G1 X200.485 Y160.262 E.12262
G1 X199.961 Y162.548 E.10335
G1 X199.181 Y165.331 E.1274
G1 X198.386 Y167.688 E.10964
G1 X197.448 Y170.069 E.11275
G1 X196.262 Y172.655 E.12541
G1 X195.212 Y174.697 E.10121
G1 X193.761 Y177.171 E.12637
G1 X192.591 Y178.984 E.09513
G1 X191.097 Y181.066 E.11294
G1 X189.605 Y182.938 E.10549
G1 X187.818 Y184.984 E.11973
G1 X186.034 Y186.819 E.11276
G1 X182.161 Y190.246 E.22792
G1 X180.141 Y191.78 E.1118
G1 X177.991 Y193.25 E.11481
G1 X175.808 Y194.587 E.11283
G1 X173.556 Y195.817 E.11309
G1 X171.25 Y196.931 E.11287
G1 X169.027 Y197.87 E.10635
G1 X166.47 Y198.814 E.12014
G1 X164.023 Y199.573 E.11289
G1 X159.003 Y200.725 E.22698
G1 X153.902 Y201.37 E.22664
G1 X150.941 Y201.501 E.13062
G1 X148.923 Y201.503 E.08892
G1 X146.086 Y201.369 E.1252
G1 X143.313 Y201.075 E.12289
G1 X138.606 Y200.242 E.21069
G1 X136.002 Y199.58 E.11839
G1 X133.507 Y198.803 E.11518
G1 X129.15 Y197.103 E.20611
G1 X126.548 Y195.871 E.12689
G1 X124.292 Y194.645 E.11316
G1 X122.086 Y193.3 E.11389
G1 X119.973 Y191.862 E.11265
G1 X117.78 Y190.198 E.12132
G1 X115.682 Y188.414 E.12138
G1 X112.61 Y185.428 E.1888
G1 X110.712 Y183.317 E.12513
G1 X108.98 Y181.167 E.12168
G1 X107.474 Y179.079 E.11348
G1 X106.065 Y176.904 E.11419
G1 X104.722 Y174.576 E.11843
G1 X103.573 Y172.324 E.11145
G1 X101.763 Y168.067 E.20388
G1 X100.784 Y165.227 E.13237
G1 X100.087 Y162.756 E.11316
G1 X99.515 Y160.26 E.11288
G1 X99.203 Y158.51 E.07835
G1 X98.744 Y155.187 E.14782
G1 X98.557 Y152.723 E.10895
G1 X98.503 Y149.091 E.16008
G1 X98.549 Y147.381 E.07536
G1 X98.748 Y144.783 E.11485
G1 X99.039 Y142.479 E.10235
G1 X99.512 Y139.755 E.12185
G1 X100.039 Y137.451 E.10417
G1 X100.82 Y134.668 E.1274
G1 X101.61 Y132.324 E.10902
G1 X102.546 Y129.946 E.11262
G1 X103.74 Y127.342 E.12625
G1 X104.725 Y125.418 E.09526
G1 X106.241 Y122.827 E.13231
G1 X107.4 Y121.03 E.09425
G1 X108.896 Y118.944 E.11314
G1 X110.397 Y117.06 E.10612
G1 X112.177 Y115.022 E.11928
G1 X113.885 Y113.266 E.10797
; printing object headset-grid.stl id:18446744073689017566 copy 0
G1 E-.8 F2100
G1 Z.65 F9000
G1 X115.72 Y114.888 Z.65
G1 Z.25
G1 E.8 F2100
;TYPE:Support interface
;WIDTH:0.4
G1 F2700
G1 X113.981 Y116.675 E.08526
G1 E-.8 F2100
G1 Z.65 F9000
G1 X108.339 Y124.085 Z.65
G1 Z.25
G1 E.8 F2100
G1 F2700
G1 X109.455 Y122.357 E.07035
G1 X110.882 Y120.372 E.08362
G1 X112.239 Y118.67 E.07443
G1 X118.597 Y112.312 E.30751
G1 X119.386 Y111.649 E.03522
G1 X121.335 Y110.171 E.08367
G1 X123.356 Y108.792 E.08368
G1 X124.067 Y108.357 E.02847
G1 E-.8 F2100
G1 Z.65 F9000
G1 X128.38 Y105.963 Z.65
G1 Z.25
G1 E.8 F2100
G1 F2700
G1 X127.607 Y106.336 E.02933
G1 X125.467 Y107.501 E.08336
G1 X125.106 Y107.722 E.01444
G1 X107.734 Y125.094 E.84022
G1 X106.902 Y126.534 E.05687
G1 X105.949 Y128.394 E.07147
G1 E-.8 F2100
G1 Z.65 F9000
G1 X104.431 Y131.831 Z.65
G1 Z.25
G1 E.8 F2100
G1 F2700
G1 X104.776 Y130.952 E.03231
G1 X105.582 Y129.165 E.06702
G1 X129.16 Y105.588 E1.14033
G1 X129.805 Y105.277 E.02451
G1 X131.847 Y104.415 E.07578
G1 X132.103 Y104.309 F9000
G1 F2700
G1 X132.502 Y104.164 E.01452
G1 X104.17 Y132.496 E1.37027
G1 X103.887 Y133.217 E.02649
G1 X103.342 Y134.844 E.05867
G1 X103.283 Y135.018 F9000
G1 F2700
G1 X103.14 Y135.446 E.01544
G1 X135.428 Y103.158 E1.56161
G1 X136.702 Y102.765 E.04562
G1 X138.095 Y102.41 E.04915
G1 X102.395 Y138.109 E1.7266
G1 X101.897 Y140.298 E.07677
G1 X101.848 Y140.576 E.00964
G1 X140.565 Y101.859 E1.87255
G1 X141.474 Y101.675 E.03172
G1 X142.881 Y101.463 E.04863
G1 X101.45 Y142.893 E2.00377
G1 X101.176 Y145.087 E.0756
G1 X145.07 Y101.192 E2.12294
G1 X146.337 Y101.065 E.04352
G1 X147.157 Y101.024 E.0281
G1 X101.019 Y147.163 E2.23147
G1 X100.989 Y147.564 E.01374
G1 X100.949 Y149.152 E.05433
G1 X149.157 Y100.944 E2.33156
G1 X151.077 Y100.943 E.06565
G1 X100.955 Y151.065 E2.42414
G1 X100.987 Y152.356 E.04416
G1 X101.024 Y152.915 E.01915
G1 X152.911 Y101.028 E2.50948
G1 X153.666 Y101.066 E.02585
G1 X154.69 Y101.168 E.03521
G1 X101.158 Y154.7 E2.58907
G1 X101.363 Y156.414 E.05903
M73 P4 R123
G1 X156.42 Y101.357 E2.6628
G1 X158.088 Y101.609 E.05769
G1 X101.612 Y158.085 E2.73146
G1 X101.9 Y159.716 E.05665
G1 X159.703 Y101.913 E2.79563
G1 X160.909 Y102.156 E.04206
G1 X161.284 Y102.252 E.01323
G1 X102.256 Y161.279 E2.85484
G1 X102.442 Y162.095 E.0286
G1 X102.643 Y162.811 E.02545
G1 X162.813 Y102.641 E2.91011
G1 X163.28 Y102.76 E.01648
G1 X164.129 Y103.021 E.03037
G1 E-.8 F2100
G1 Z.65 F9000
G1 X153.987 Y127.025 Z.65
G1 Z.25
G1 E.8 F2100
G1 F2700
G1 X154.996 Y127.225 E.0352
G1 X154.758 Y127.395 E.01001
G1 X154.613 Y127.444 E.00524
G1 X154.497 Y127.471 E.00407
G1 X154.233 Y127.467 E.00902
G1 X153.974 Y127.395 E.00918
G1 X153.744 Y127.259 E.00916
G1 X153.656 Y127.152 E.00474
G1 X153.81 Y126.998 E.00747
G1 X153.522 Y126.954 E.00997
G1 X153.551 Y127.008 E.00211
G1 E-.8 F2100
G1 Z.65 F9000
G1 X151.504 Y127.626 Z.65
G1 Z.25
G1 E.8 F2100
G1 F2700
G1 X151.529 Y127.736 E.00385
G1 X151.171 Y127.717 E.01223
G1 X151.412 Y127.477 E.01165
G1 X151.386 Y127.444 E.00143
G1 X151.232 Y127.37 E.00583
G1 X151.062 Y127.37 E.00583
G1 X150.908 Y127.444 E.00584
G1 X150.802 Y127.577 E.00583
G1 X150.774 Y127.697 E.00422
G1 X150.993 Y127.708 E.00749
G1 E-.8 F2100
G1 Z.65 F9000
G1 X150.594 Y126.759 Z.65
G1 Z.25
G1 E.8 F2100
;TYPE:Support
;WIDTH:0.5
G1 F2700
G1 X151.751 Y126.817 E.05105
G1 X153.06 Y126.956 E.05804
G1 X153.1 Y127.077 E.00559
G1 X153.223 Y127.301 E.01129
G1 X153.461 Y127.59 E.01647
G1 X153.805 Y127.793 E.01762
G1 X154.171 Y127.895 E.01676
G1 X154.367 Y127.898 E.00863
G1 X154.464 Y128.321 E.0191
G1 X154.822 Y128.493 E.01754
G1 X155.478 Y128.177 E.0321
G1 X155.565 Y127.434 E.033
G1 X156.277 Y127.614 E.03235
G1 X157.365 Y127.949 E.05016
G1 X158.04 Y128.194 E.03164
G1 X157.77 Y128.131 E.01218
G1 X157.602 Y128.191 E.00789
G1 X157.511 Y128.253 E.00485
G1 X157.255 Y128.276 E.01132
G1 X157.003 Y128.575 E.01728
G1 X156.911 Y128.838 E.01225
G1 X156.867 Y129.212 E.0166
G1 X158.272 Y129.737 E.06611
G1 X158.552 Y129.384 E.01985
G1 X158.626 Y129.058 E.01476
G1 X158.613 Y128.803 E.01125
G1 X158.516 Y128.582 E.01061
G1 X158.576 Y128.611 E.0029
